X:4005
T:Marinette (D. Champion)
O:england
S:Bardane
M:2/4
L:1/16
K:C
e2e2 e2de|fdfd e2dc|B2BA B2Bc|BABc BcdB|\
e2e2 e2de|fdfd e2dc|B2BA B2cd|cGed c4:|
|:efed c2cd|eGce g2fe|f2d2 B2Bc|dcde f2ed|\
efed c2cd|eGce g2fe|f2d2 B2cd|c2ed c4:|


